assets/icons/gear-filled.svg

<?xml version="1.0" encoding="UTF-8" standalone="no"?>
<svg viewBox="0 0 24 24" height="24" id="svg7384" version="1.1" width="24" sodipodi:docname="settings-filled.svg" inkscape:version="1.1 (ce6663b3b7, 2021-05-25)"
   xmlns:inkscape="http://www.inkscape.org/namespaces/inkscape"
   xmlns:sodipodi="http://sodipodi.sourceforge.net/DTD/sodipodi-0.dtd"
   xmlns="http://www.w3.org/2000/svg"
   xmlns:svg="http://www.w3.org/2000/svg"
   xmlns:rdf="http://www.w3.org/1999/02/22-rdf-syntax-ns#"
   xmlns:cc="http://creativecommons.org/ns#"
   xmlns:dc="http://purl.org/dc/elements/1.1/">
   <sodipodi:namedview id="namedview23" pagecolor="#ffffff" bordercolor="#666666" borderopacity="1.0" inkscape:pageshadow="2" inkscape:pageopacity="0.0" inkscape:pagecheckerboard="0" showgrid="true" inkscape:snap-page="false" inkscape:zoom="14" inkscape:cx="-7.6785714" inkscape:cy="3.8928571" inkscape:window-width="1920" inkscape:window-height="1016" inkscape:window-x="0" inkscape:window-y="27" inkscape:window-maximized="1" inkscape:current-layer="svg7384">
      <inkscape:grid type="xygrid" id="grid917" />
   </sodipodi:namedview>
   <metadata id="metadata20854">
      <rdf:RDF>
         <cc:Work rdf:about="">
            <dc:format>image/svg+xml</dc:format>
            <dc:type rdf:resource="http://purl.org/dc/dcmitype/StillImage" />
         </cc:Work>
      </rdf:RDF>
   </metadata>
   <defs id="defs7386">
      <linearGradient id="linearGradient5606" inkscape:swatch="solid">
         <stop id="stop5608" offset="0" style="stop-color:#000000;stop-opacity:1;" />
      </linearGradient>
      <linearGradient id="linearGradient4526" inkscape:swatch="solid">
         <stop id="stop4528" offset="0" style="stop-color:#ffffff;stop-opacity:1;" />
      </linearGradient>
      <linearGradient id="linearGradient3600-4" inkscape:swatch="gradient">
         <stop id="stop3602-7" offset="0" style="stop-color:#f4f4f4;stop-opacity:1" />
         <stop id="stop3604-6" offset="1" style="stop-color:#dbdbdb;stop-opacity:1" />
      </linearGradient>
   </defs>
   <path id="path903" style="fill:#808080;fill-opacity:1;fill-rule:evenodd;stroke-width:1.5;stroke-linecap:square;stroke-linejoin:round" d="M 10 2 L 10 3.2480469 A 9 9 0 0 0 7.9042969 4.0078125 L 7.1035156 3.0546875 L 4.0390625 5.625 L 4.84375 6.5820312 A 9 9 0 0 0 3.7207031 8.5078125 L 2.5 8.2929688 L 1.8046875 12.232422 L 3.03125 12.449219 A 9 9 0 0 0 3.4082031 14.650391 L 2.3398438 15.267578 L 4.3398438 18.732422 L 5.4160156 18.111328 A 9 9 0 0 0 7.1210938 19.560547 L 6.7011719 20.712891 L 10.458984 22.080078 L 10.880859 20.919922 A 9 9 0 0 0 12 21 A 9 9 0 0 0 13.119141 20.919922 L 13.541016 22.080078 L 17.298828 20.712891 L 16.878906 19.560547 A 9 9 0 0 0 18.583984 18.111328 L 19.660156 18.732422 L 21.660156 15.267578 L 20.591797 14.650391 A 9 9 0 0 0 20.96875 12.449219 L 22.195312 12.232422 L 21.5 8.2929688 L 20.292969 8.5058594 A 9 9 0 0 0 19.171875 6.5644531 L 19.960938 5.625 L 16.896484 3.0546875 L 16.107422 3.9941406 A 9 9 0 0 0 14 3.2285156 L 14 2 L 10 2 z M 12 5 A 7 7 0 0 1 19 12 A 7 7 0 0 1 12 19 A 7 7 0 0 1 5 12 A 7 7 0 0 1 12 5 z M 12 6 A 6 6 0 0 0 6 12 A 6 6 0 0 0 12 18 A 6 6 0 0 0 18 12 A 6 6 0 0 0 12 6 z " />
</svg>

<svg height="24" width="24" xmlns="http://www.w3.org/2000/svg"><path style="fill:gray;fill-opacity:1;stroke-width:1.5;stroke-linecap:square;stroke-linejoin:round" d="M10 2v1.248a9 9 0 0 0-2.096.76l-.8-.953-3.065 2.57.805.957A9 9 0 0 0 3.72 8.508L2.5 8.293l-.695 3.94 1.226.216a9 9 0 0 0 .377 2.201l-1.068.618 2 3.464 1.076-.62a9 9 0 0 0 1.705 1.449l-.42 1.152 3.758 1.367.422-1.16A9 9 0 0 0 12 21a9 9 0 0 0 1.12-.08l.421 1.16 3.758-1.367-.42-1.152a9 9 0 0 0 1.705-1.45l1.076.621 2-3.464-1.068-.618a9 9 0 0 0 .377-2.2l1.226-.218-.695-3.939-1.207.213a9 9 0 0 0-1.121-1.942l.789-.939-3.065-2.57-.789.94A9 9 0 0 0 14 3.228V2h-4zm2 3a7 7 0 0 1 7 7 7 7 0 0 1-7 7 7 7 0 0 1-7-7 7 7 0 0 1 7-7zm0 1a6 6 0 0 0-6 6 6 6 0 0 0 6 6 6 6 0 0 0 6-6 6 6 0 0 0-6-6z"/></svg>
